X: 27221
T: Miss Rowan Davies
R: waltz
M: 3/4
K: Gmajor
|:BA|G2 GA D2|D3 E F2|G6|G2 Gg gf|
e2 ef ge|d2 dG B2|A4 B/A/G/A/|B4 A2|
G2 GA D2|D3 E F2|G6|G2 GA BG|
Ec c2 A2|F2 FG AF|G6|1 G6:|2 G4 GF||
|:E2 EF E2|e2 ef ge|d6|d2 dB BA|
G2 GA Bd|e2 G2 GA|B6|B2 c2 d2|
e4 EG|F2 FG AF|G2 GB AG/F/|G2 GA BG|
Ec c2 A2|F2 FG AF|G6|1 G4 GF:|2 G4 z2|

